X: 3
T: The Sheep In The Boat
R: jig
M: 6/8
L: 1/8
K: Edor
"1"BEF {A}GFE | ~F3 def | {g}edB BAF | {B}AFE FED |BEF G2 A | ~F3 def | {g}edB BAF | {B}AFE E2 z |BEF {A}G2E | ~F3 d3 | {g}edB BAF | {B}AFE {F}FED |BEF .G2 A | FEF .d2f | {g}edB BAF | {B}AFE E2 z |"5"{c}B2 e ede | ~f3 .d2 f | {g}edB BAF | {B}AFE {G}FED |BBe ede | .f2f def | {g}edB BAF | {B}AFE E2 z |BeB ~e3 | {g}fef Adf | {g}edB BAF | {B}AFE {G}FED |BEF .G2A | ~F3 .d2f | {g}edB BAF | {B}AFE E2 z |BEF GFE|~F3 def|{g}edB BAF|{B}AFE {G}FED|"10"BEF G2 A | ~F3 Adf | {g}edB BAF | {B}AFE E2 z |BEF .G2 E | ~F3 dcd | {g}edB BAF | {B}AFE {G}FED |BEF G2 A | FEF .d2 f | {g}edB BAF | {B}AFE E2 z|B2e ede | .f2f def | {g}edB BAF | {B}AFE {G}FED |Bee .ede | fef .d2f | edB BAF | {B}AFE E2 z |"15"B2e ede | ~f3 Adf | {g}edB BAF | {B}AFE {G}FED |BEF .G2A | ~F3 .d2f | {g}edB BAF | {B}AFE E2 z |BEF {A}G2E|~F3 d2f|{g}edB BAF|{B}AFE {G}FED|BEF .G2 A | FEF def | {g}edB BAF | {B}AFE E2 z |BEF ~G3|~F3 Adf|{g}edB BAF | {B}AFE {G}FED |"20"BEF .G2 A | ~F3 Adf | {g}edB BAF | {B}AFE E2 z |BB e ede | ~f3 .d2 f | {g}edB BAF | {B}AFE {G}FED |Bee .ede | .f2f def | {g}edB BAF | {B}AFE E2 z |~B3 eBe|~f3 .d2 f | {g}edB BAF | {B}AFE {G}FED |BEF .G2 A | ~F3 .d2 f | {g}edB BAF | {B}AFE E2 z ||


Tune 2576	Setting 2576

